src/assets/cursor-view.svg

<svg width="68" height="68" viewBox="0 0 68 68" fill="none" xmlns="http://www.w3.org/2000/svg">
<rect width="68" height="68" rx="34" fill="#040B1B"/>
<path d="M19.336 40L15.08 28.336H17.032L19.848 36.448L20.456 38.352H20.568L21.192 36.464L24.024 28.336H25.944L21.704 40H19.336ZM27.8389 40V31.536H29.4869V40H27.8389ZM27.8389 30.24V28.336H29.4869V30.24H27.8389ZM35.9364 40.144C35.0937 40.144 34.363 39.968 33.7444 39.616C33.1364 39.2533 32.667 38.7467 32.3364 38.096C32.0057 37.4347 31.8404 36.672 31.8404 35.808C31.8404 34.912 32.0057 34.1333 32.3364 33.472C32.667 32.8107 33.131 32.304 33.7284 31.952C34.3364 31.5893 35.051 31.408 35.8724 31.408C36.8004 31.408 37.563 31.616 38.1604 32.032C38.7684 32.4373 39.2057 32.9973 39.4724 33.712C39.739 34.416 39.8297 35.2107 39.7444 36.096H33.4724C33.483 36.672 33.5897 37.168 33.7924 37.584C33.995 37.9893 34.2777 38.2987 34.6404 38.512C35.0137 38.7253 35.4457 38.832 35.9364 38.832C36.5017 38.832 36.9817 38.704 37.3764 38.448C37.771 38.1813 38.0217 37.8293 38.1284 37.392H39.6964C39.6217 37.9467 39.4137 38.432 39.0724 38.848C38.731 39.2533 38.2884 39.5733 37.7444 39.808C37.211 40.032 36.6084 40.144 35.9364 40.144ZM33.4884 35.168L33.3284 34.928H38.2884L38.1284 35.2C38.1497 34.6133 38.059 34.1387 37.8564 33.776C37.6644 33.4027 37.3924 33.1307 37.0404 32.96C36.699 32.7893 36.3044 32.704 35.8564 32.704C35.387 32.704 34.9764 32.8053 34.6244 33.008C34.2724 33.2 34.0004 33.4827 33.8084 33.856C33.6164 34.2293 33.5097 34.6667 33.4884 35.168ZM43.1135 40L40.9535 31.536H42.6495L44.3135 38.352H44.3935L45.9615 31.536H47.7855L49.4015 38.368H49.4495L51.1135 31.536H52.7295L50.5695 40H48.4095L46.8415 33.632H46.7775L45.2575 40H43.1135Z" fill="white"/>
</svg>

<svg xmlns="http://www.w3.org/2000/svg" width="68" height="68" fill="none">
  <rect width="68" height="68" fill="#040B1B" rx="34"/>
  <path fill="#fff" d="M19.336 40 15.08 28.336h1.952l2.816 8.112.608 1.904h.112l.624-1.888 2.832-8.128h1.92L21.704 40h-2.368Zm8.503 0v-8.464h1.648V40h-1.648Zm0-9.76v-1.904h1.648v1.904h-1.648Zm8.097 9.904c-.842 0-1.573-.176-2.192-.528a3.659 3.659 0 0 1-1.408-1.52c-.33-.661-.496-1.424-.496-2.288 0-.896.166-1.675.496-2.336.331-.661.795-1.168 1.392-1.52.608-.363 1.323-.544 2.144-.544.928 0 1.691.208 2.288.624a3.382 3.382 0 0 1 1.312 1.68c.267.704.358 1.499.272 2.384h-6.272c.011.576.118 1.072.32 1.488.203.405.486.715.848.928.374.213.806.32 1.296.32.566 0 1.046-.128 1.44-.384.395-.267.646-.619.752-1.056h1.568a2.847 2.847 0 0 1-.624 1.456 3.529 3.529 0 0 1-1.328.96c-.533.224-1.136.336-1.808.336Zm-2.448-4.976-.16-.24h4.96l-.16.272c.022-.587-.069-1.061-.272-1.424a1.779 1.779 0 0 0-.816-.816 2.614 2.614 0 0 0-1.184-.256c-.469 0-.88.101-1.232.304a1.96 1.96 0 0 0-.816.848c-.192.373-.298.81-.32 1.312ZM43.114 40l-2.16-8.464h1.696l1.663 6.816h.08l1.569-6.816h1.823l1.617 6.832h.047l1.665-6.832h1.616L50.57 40h-2.16l-1.568-6.368h-.064L45.258 40h-2.145Z"/>
</svg>
